assets/Coat/Flat/coat_flat.svg

<svg width="32" height="32" viewBox="0 0 32 32" fill="none" xmlns="http://www.w3.org/2000/svg">
<path d="M19 6.01001H12V12H19V6.01001Z" fill="#8C5543"/>
<path d="M8.0228 19.9648L6.27429 22.83C6.11429 23.13 5.73429 23.24 5.43429 23.07L2.31429 21.35C2.03429 21.19 1.92429 20.85 2.05429 20.56L8.79547 7.3475C9.34547 6.3375 10.0227 6 11.1192 6H11.9766L15.6077 12.7949L19.0078 6.01172H20.4674C22.0342 6.01172 22.8843 7.05 23.4343 8.06L29.8143 20.56C29.9443 20.85 29.8343 21.19 29.5543 21.35L26.4343 23.07C26.1343 23.24 25.7543 23.13 25.5943 22.83L24.0049 19.9871V28.9988C24.0049 29.5165 23.6113 29.9911 23.004 29.9911H14.9976V29.991H9.01628C8.44074 29.991 7.98823 29.5919 7.98823 29.0117L8.0228 19.9648Z" fill="#FFDEA7"/>
<path d="M9.94435 10.77C9.74435 10.93 9.73435 11.23 9.92435 11.41L15.0248 16.0019C15.6371 15.2896 15.7746 15.1522 16.8444 13.69L12.0044 6H11.2944C10.5744 6 9.94435 6.5 9.76435 7.2L9.36435 8.96C9.26435 9.35 9.56435 9.73 9.96435 9.73C9.96435 9.73 10.7144 9.76 10.8044 9.78C10.8944 9.79 10.9344 9.9 10.8044 10.02C10.6844 10.15 10.2944 10.49 10.2944 10.49L9.94435 10.77Z" fill="#E19747"/>
<path d="M16.5022 19.0044C16.7795 19.0044 17.0044 18.7795 17.0044 18.5022C17.0044 18.2248 16.7795 18 16.5022 18C16.2248 18 16 18.2248 16 18.5022C16 18.7795 16.2248 19.0044 16.5022 19.0044ZM16.5022 22.0044C16.7795 22.0044 17.0044 21.7795 17.0044 21.5022C17.0044 21.2248 16.7795 21 16.5022 21C16.2248 21 16 21.2248 16 21.5022C16 21.7795 16.2248 22.0044 16.5022 22.0044ZM17 24.5C17 24.7761 16.7761 25 16.5 25C16.2239 25 16 24.7761 16 24.5C16 24.2239 16.2239 24 16.5 24C16.7761 24 17 24.2239 17 24.5Z" fill="#8C5543"/>
<path d="M9.07579 23.6842L12.7944 21.4842C12.8542 21.4442 13 21.4842 13 21.5898L13 22.0038C13 22.2929 12.9143 22.5156 12.6648 22.6642L10.1625 24.1542C9.77366 24.3942 9.25525 24.2642 9.02595 23.8642C8.99604 23.8042 9.01598 23.7242 9.07579 23.6842ZM22.9362 23.6842L19.2062 21.4842C19.1462 21.4442 19 21.4842 19 21.5898L19 22.0038C19 22.2929 19.0859 22.5156 19.3362 22.6642L21.8462 24.1542C22.2362 24.3942 22.7562 24.2642 22.9862 23.8642C23.0162 23.8042 22.9962 23.7242 22.9362 23.6842Z" fill="#E19747"/>
<path d="M14.0061 15.7374H15V30H14.0061V15.7374Z" fill="#F3C07B"/>
<path d="M20.9643 10.77C21.1643 10.93 21.1743 11.23 20.9843 11.41L14.4522 17.3844C14.2822 17.5444 14.0022 17.4244 14.0022 17.1944V14.4044C14.0022 14.1444 14.0622 13.8844 14.1622 13.6444L18.9922 6H19.6143C20.3343 6 20.9643 6.5 21.1443 7.2L21.5443 8.96C21.6443 9.35 21.3443 9.73 20.9443 9.73C20.9443 9.73 20.1943 9.76 20.1043 9.78C20.0143 9.79 19.9743 9.9 20.1043 10.02C20.2343 10.14 20.6143 10.48 20.6143 10.48L20.9643 10.77Z" fill="#F3AD61"/>
</svg>

<svg xmlns="http://www.w3.org/2000/svg" width="32" height="32" fill="none"><path fill="#8C5543" d="M19 6.01h-7V12h7V6.01Z"/><path fill="#FFDEA7" d="M8.023 19.965 6.274 22.83a.61.61 0 0 1-.84.24l-3.12-1.72a.617.617 0 0 1-.26-.79L8.795 7.348C9.345 6.338 10.023 6 11.12 6h.858l3.63 6.795 3.4-6.783h1.46c1.567 0 2.417 1.038 2.967 2.048l6.38 12.5c.13.29.02.63-.26.79l-3.12 1.72a.61.61 0 0 1-.84-.24l-1.59-2.843V29a.981.981 0 0 1-1 .992H9.016c-.575 0-1.028-.4-1.028-.98l.035-9.046Z"/><path fill="#E19747" d="M9.944 10.77c-.2.16-.21.46-.02.64l5.1 4.592c.613-.712.75-.85 1.82-2.312L12.004 6h-.71c-.72 0-1.35.5-1.53 1.2l-.4 1.76c-.1.39.2.77.6.77 0 0 .75.03.84.05.09.01.13.12 0 .24-.12.13-.51.47-.51.47l-.35.28Z"/><path fill="#8C5543" d="M16.502 19.004a.502.502 0 1 0 0-1.004.502.502 0 0 0 0 1.004Zm0 3a.502.502 0 1 0 0-1.004.502.502 0 0 0 0 1.004ZM17 24.5a.5.5 0 1 1-1 0 .5.5 0 0 1 1 0Z"/><path fill="#E19747" d="m9.076 23.684 3.718-2.2c.06-.04.206 0 .206.106v.414c0 .289-.086.512-.335.66l-2.502 1.49a.819.819 0 0 1-1.137-.29.144.144 0 0 1 .05-.18Zm13.86 0-3.73-2.2c-.06-.04-.206 0-.206.106v.414c0 .289.086.512.336.66l2.51 1.49c.39.24.91.11 1.14-.29.03-.06.01-.14-.05-.18Z"/><path fill="#F3C07B" d="M14.006 15.737H15V30h-.994V15.737Z"/><path fill="#F3AD61" d="M20.964 10.77c.2.16.21.46.02.64l-6.532 5.974c-.17.16-.45.04-.45-.19v-2.79c0-.26.06-.52.16-.76L18.992 6h.622c.72 0 1.35.5 1.53 1.2l.4 1.76c.1.39-.2.77-.6.77 0 0-.75.03-.84.05-.09.01-.13.12 0 .24s.51.46.51.46l.35.29Z"/></svg>
